X:103
T:Peasants Dance. Ru2.103, The
%%VWML:RutherfordVol2-2249-p52-0
F:http://www.vwml.org/record/RutherfordVol2/2249/p52
Z:vmp.Mike Hicken 2015 www.village-music-project.org.uk
N: The final symbol of dance notation in the original is :|
M:6/8
Q:3/8=120
K:A
|:c2d efe|d2c Bcd|ecA F2B|GEG A3 :|
|: (c2A) (d2B)|(c2A)(B2a)|ecA F2B|GEG A3 :|
|: a2e aec|(a2c) (b2B)|(cde) F2B|GEG A3 :|
|: cec d2f|(B2d) (c2e)|(A2c) BdB|GEG A3 :|
W:
W: Cast off one Cu: .|  Cast up again :|  Gallop down
W: one Cu: .|.  up again & cast off :|.  Right Hands across
W: half round with the 3d. Cu: .||  Left hands back again :||
W: Right & Left with the 2d. Cu :|
T:Tom Jones. Ru2.104
L:1/8
B:RUTHERFORD Complete Collection of 200 Country Dances Vol.2; 1759.
Z:vmp.Mike Hicken 2015 www.village-music-project.org.uk
N: * This note is shown as a dotted crotchet in the original but has been changed to a crotchet to give the correct bar length.
M:6/8
Q:3/8=120
K:D
a3g3|fdf ecA|d2f ece|d2f ecA|
dcd ede|fef ^gfg|a2d cdB|A3A3 :|
|: D2F E2G|"*"F2A EFG|F2d AB=c|B3 B2F|
GFG AGA|BAB cBc|d2G FGE|D3D3 :|
W:
W: Cast off & right Hands across with the 3d.
W: Cu: .|  up again & Left hands across with the
W: 2d. Cu: :|  Lead down one Cu: Cast up & turn .|.  the 2d
W: Cu: the same :|.  Hands round 6 .||.  & back again :||
W: Lead to the top foot it & cast off .||.  Right & Left at
W: top :||.
